X:5
T:Avant-garde Study 005
C:Generated
M:11/8
L:1/8
Q:1/8=87
K:Cmix
^G3 ^c3 d3 G, ^c | d A2 E3 B,2 C3 | ^c3 ^G3 A3 D2 | g3 ^F,3 ^C3 G, ^F | F3 E3 ^D,3 d2 | ^c2 C, g3 ^f2 c3 | ^f B,3 ^f2 c3 ^c2 | c2 ^F3 F ^f C3 G | ^c ^g2 g c ^C, D2 a ^d d | G D ^d3 e F, ^f2 ^c2 | ^G3 G3 ^F,3 g2 | c ^C2 g3 c ^f b ^a F | b2 ^A, e3 B,2 ^F3 | f ^A,2 ^d3 d3 A2 | ^g3 ^D,3 ^A b2 E,2 | A3 ^a ^D ^A2 E ^A2 e | F,2 b2 ^A2 ^D2 a ^d2 | ^a A3 ^a3 ^d3 d | G, ^F b3 C2 ^f2 g2 | c ^c2 G2 c3 F,2 ^a |
